X: 19558
T: James Gannon's
R: barndance
M: 4/4
K: Gmajor
dc|B2(3BAG A2(3AGF|G2 D2 DGBd|e2 F2 FAdf|g2 d2 dedc|
B2(3BAG A2(3AGF|G2 D2 DGBd|e2 F2 FGcB|A6 G2||
gf|e^def gfga|b2 d2 d2ed|cBAB cdef|g2 d2 d2 gf|
e^def gfga|b2 d2 d2ed|cBAB cdef|g4 g4 g4||
K: Cmajor
Gc|e2 ^de a2 ge|g2 fd A2 Bc|d2 ^cd g2 fB|d2 cA G2 Gc|
e2 ^de a2 ge|g2 fd A2 Bc|d^cde f2 B2|c4 c4 c4||

